X:511
T: "Vergeblich"
N: Z1191
O: Europa, Mitteleuropa, Deutschland, Franken
R: Liebes - Lied
M: 3/4
L: 1/8
K: G
GA | B2B2GA | B2B2
d2 | d3cB2 | A2z2
GA | B2B2GA | B2B2
d2 | d3cB2 | A2z2
AB | c2c2Ac | B2B2
GB | A3GF2 | G2z2

